public/images/logo.svg

<svg width="67" height="32" viewBox="0 0 67 32" fill="none" xmlns="http://www.w3.org/2000/svg">
<path d="M30.1155 22.899V21.7959H30.095L21.4847 30.4061L21.8663 31.1476L30.1155 22.899Z" fill="#293133"/>
<path d="M29.4611 21.7959H28.3374L24.9156 25.218L23.8477 27.4088L29.4611 21.7959Z" fill="#293133"/>
<path d="M22.8681 27.2651L20.8873 29.2458L21.2689 29.9873L23.24 28.0169L22.8681 27.2651Z" fill="#293133"/>
<path d="M19.7106 29.7886V28.6655L17.0742 31.3011H18.1979L19.7106 29.7886Z" fill="#293133"/>
<path d="M19.7106 30.4233L18.8318 31.3015H19.7106V30.4233Z" fill="#293133"/>
<path d="M31.1816 22.4668V23.5904L32.9763 21.7959H31.8526L31.1816 22.4668Z" fill="#293133"/>
<path d="M35.3193 24.7248H34.3545V24.5659L31.1816 27.7386V28.8622L35.3193 24.7248Z" fill="#293133"/>
<path d="M31.1816 25.9812V27.1043L34.3545 23.9316V22.8086L31.1816 25.9812Z" fill="#293133"/>
<path d="M31.1816 25.3478L34.3545 22.1752V21.7959H33.6102L31.1816 24.2242V25.3478Z" fill="#293133"/>
<path d="M34.3545 28.0801L31.1816 31.2527V31.3011H32.2569L34.3545 29.2037V28.0801Z" fill="#293133"/>
<path d="M18.9166 21.7959H17.7935L16.5377 23.0522V24.1752L18.9166 21.7959Z" fill="#293133"/>
<path d="M30.1154 27.0474L26.9551 30.2075V31.3009H26.9847L30.1154 28.1704V27.0474Z" fill="#293133"/>
<path d="M16.5377 22.4184L17.1596 21.7959H16.5377V22.4184Z" fill="#293133"/>
<path d="M31.1816 21.7959V21.8333L31.219 21.7959H31.1816Z" fill="#293133"/>
<path d="M45.7487 27.2305L42.5889 30.3906V31.3012H42.8014L45.7487 28.3541V27.2305Z" fill="#293133"/>
<path d="M25.5181 23.9816L27.704 21.7959H26.5832L25.5181 23.9816Z" fill="#293133"/>
<path d="M21.4944 24.4904L21.1219 23.7393L16.5371 28.3231V29.4467L21.4944 24.4904Z" fill="#293133"/>
<path d="M20.3302 22.1399L20.1599 21.7959H19.5511L16.5377 24.8091V25.9327L20.3302 22.1399Z" fill="#293133"/>
<path d="M19.7106 28.0319V26.9595L20.0745 27.6674L22.0764 25.6662L21.7039 24.915L16.5377 30.0809V31.2045L19.7106 28.0319Z" fill="#293133"/>
<path d="M20.9123 23.3151L20.5404 22.564L16.5371 26.5664V27.6894L20.9123 23.3151Z" fill="#293133"/>
<path d="M20.672 28.8269L22.6579 26.8411L22.286 26.0894L20.2898 28.0854L20.672 28.8269Z" fill="#293133"/>
<path d="M26.188 28.5836L26.9551 27.0106V27.8164L30.1155 24.6563V23.5327L22.347 31.3012H23.4701L26.188 28.5836Z" fill="#293133"/>
<path d="M41.9471 26.8836C41.8662 26.6552 41.766 26.4377 41.6315 26.2406C41.6093 26.2082 41.582 26.1802 41.5586 26.1489L39.2133 28.4947C39.1518 28.7265 39.0458 28.9007 38.8829 29.0021C38.7964 29.0562 38.6899 29.0978 38.5737 29.1336L36.4055 31.3017H37.5292L41.9471 26.8836Z" fill="#293133"/>
<path d="M37.6818 26.8179H37.6943C37.9973 26.8179 38.245 26.8362 38.4438 26.8709L40.2071 25.1078C39.94 24.995 39.6501 24.9113 39.3431 24.8486L37.3737 26.8179H37.6812H37.6818Z" fill="#293133"/>
<path d="M36.0791 29.2368C35.7858 29.2351 35.4116 29.234 34.9588 29.2334L32.8908 31.3012H34.0139L36.0785 29.2368H36.0791Z" fill="#293133"/>
<path d="M42.1116 28.4768C42.1276 28.3464 42.139 28.2148 42.139 28.0776V28.0263C42.139 27.8014 42.1145 27.5901 42.0792 27.3862L38.1664 31.2992C38.6238 31.2941 39.0481 31.2406 39.4434 31.1455L42.1116 28.4774V28.4768Z" fill="#293133"/>
<path d="M45.7487 30.7446L45.1929 31.301H45.7487V30.7446Z" fill="#293133"/>
<path d="M41.6316 29.7596C41.7198 29.632 41.7956 29.4982 41.8611 29.3604L40.4515 30.7698C40.9436 30.5119 41.3411 30.1787 41.6316 29.7596Z" fill="#293133"/>
<path d="M45.7487 30.1108V28.9878L43.4352 31.3011H44.5589L45.7487 30.1108Z" fill="#293133"/>
<path d="M42.5889 22.7276L43.5201 21.7959H42.5889V22.7276Z" fill="#293133"/>
<path d="M45.7487 25.4736L42.5889 28.6332V29.7568L45.7487 26.5967V25.4736Z" fill="#293133"/>
<path d="M37.8327 29.2402C37.7855 29.2414 37.7439 29.2459 37.6943 29.2459H37.3088C37.1926 29.2459 36.9898 29.2448 36.7073 29.2419L34.6479 31.3012H35.7716L37.8327 29.2402Z" fill="#293133"/>
<path d="M34.3545 26.8181H34.9827L37.0769 24.7246H35.9532L31.1816 29.4958V30.6189L34.3545 27.4462V26.8181Z" fill="#293133"/>
<path d="M40.6309 25.3193L38.8961 27.054C38.9638 27.1047 39.0288 27.1588 39.0823 27.2294C39.1842 27.3655 39.244 27.5603 39.2651 27.8092L41.2648 25.8091C41.078 25.624 40.8701 25.4583 40.6309 25.3193Z" fill="#293133"/>
<path d="M30.1154 30.562L29.3762 31.3012H30.1154V30.562Z" fill="#293133"/>
<path d="M25.5837 29.8213L24.104 31.3008H24.8615L25.5837 29.8213Z" fill="#293133"/>
<path d="M30.1154 25.29L26.9551 28.4502V29.5738L30.1154 26.4137V25.29Z" fill="#293133"/>
<path d="M30.1154 29.9278V28.8042L27.6186 31.3009H28.7423L30.1154 29.9278Z" fill="#293133"/>
<path d="M45.7487 24.8389V23.7153L42.5889 26.8755V27.9991L45.7487 24.8389Z" fill="#293133"/>
<path d="M42.5889 23.3614V24.485L45.2777 21.7959H44.154L42.5889 23.3614Z" fill="#293133"/>
<path d="M42.5889 25.1186V26.2417L45.7487 23.0815V21.9585L42.5889 25.1186Z" fill="#293133"/>
<path d="M36.7403 26.8182L38.7941 24.7646C38.5646 24.7406 38.3288 24.7241 38.0799 24.7241H37.7108L35.6166 26.8182H36.7403Z" fill="#293133"/>
<path d="M24.5089 0.043457H28.0799L24.3677 4.83461L28.0799 9.54888H24.5089L22.171 6.60745L19.833 9.54888H16.262L19.9868 4.83461L16.262 0.043457H19.833L22.171 2.99799L24.5089 0.043457Z" fill="#293133"/>
<path d="M41.4646 9.54888H38.2661L37.3799 7.91728H31.9978L31.111 9.54888H27.9125L33.0639 0.043457H36.3137L41.4646 9.54888ZM34.6957 2.94617L33.1539 5.772H36.2237L34.6951 2.94617H34.6957Z" fill="#293133"/>
<path d="M9.46971 26.3755C9.77328 26.7804 10.1879 27.0429 10.7142 27.1648C11.2398 27.2861 11.9586 27.347 12.8693 27.347L12.9 31.3227C10.9368 31.3227 9.38884 31.2264 8.25603 31.0339C7.12265 30.842 6.12595 30.2702 5.26652 29.3192C4.40595 28.3681 3.94576 26.8413 3.88539 24.7365V19.1218C3.86489 18.1104 3.55164 17.4475 2.94451 17.1337C2.33738 16.8205 1.36632 16.6633 0.0301855 16.6633H0L0.0301855 15.6314L0 14.6297H0.0301855C0.940877 14.6297 1.65906 14.5744 2.18532 14.4628C2.711 14.3517 3.1262 14.1137 3.42976 13.7498C3.73332 13.3859 3.88539 12.8392 3.88539 12.1108V6.52632C3.94576 4.44254 4.40595 2.92484 5.26652 1.97322C6.12595 1.02216 7.12265 0.455514 8.25603 0.273845C9.38941 0.0916067 10.9368 0.000488281 12.9 0.000488281L12.8693 3.91576C11.9592 3.91576 11.2404 3.97613 10.7142 4.098C10.1879 4.2193 9.77328 4.48753 9.46971 4.90213C9.16615 5.31729 9.01465 5.93974 9.01465 6.76893V12.3232C8.93377 13.8409 8.3164 14.944 7.16308 15.6314C8.31697 16.3193 8.93377 17.4327 9.01465 18.9703V24.5246C9.01465 25.3544 9.16615 25.9717 9.46971 26.376" fill="#293133"/>
<path d="M25.8707 11.4001C26.4829 11.6655 26.9579 12.0357 27.2968 12.5112C27.6351 12.9862 27.8043 13.5369 27.8043 14.1616V14.2128C27.8043 15.2408 27.4529 16.0352 26.7506 16.5956C26.0484 17.156 25.0893 17.4368 23.8733 17.4368H19.7499V20.5069H16.577V11.0015H23.7577C24.5539 11.0015 25.2584 11.1342 25.8707 11.4001ZM24.1877 15.1508C24.4058 15.1252 24.5881 15.0437 24.7333 14.9071C24.8791 14.7704 24.952 14.5432 24.952 14.2265C24.952 13.9099 24.8791 13.6656 24.7333 13.5203C24.5875 13.3745 24.3996 13.2846 24.1683 13.2504C23.9371 13.2162 23.6113 13.1986 23.1922 13.1986H22.7678C22.5964 13.1986 22.2968 13.2009 21.8685 13.2054C21.4403 13.21 20.734 13.2117 19.7487 13.2117V15.1901H23.1916C23.6364 15.1901 23.9684 15.177 24.1871 15.1514" fill="#293133"/>
<path d="M31.7728 11.002V16.8974L37.0399 11.002H40.1997V20.5068H37.0399V14.5983L31.7728 20.5068H28.5999V11.002H31.7728Z" fill="#293133"/>
<path d="M51.2214 19.9678C50.1507 20.5162 48.7547 20.7902 47.0336 20.7902C45.0892 20.7902 43.6038 20.4582 42.5758 19.7947C41.5478 19.1312 41.0341 18.1312 41.0341 16.7952H44.0401C44.0401 17.4546 44.3311 17.9364 44.9138 18.24C45.4958 18.5441 46.2026 18.6922 47.0336 18.683C47.7614 18.7001 48.3822 18.6016 48.896 18.3875C49.4097 18.1739 49.6705 17.8311 49.6796 17.3601C49.6796 17.1204 49.6153 16.9387 49.4871 16.8145C49.3584 16.6904 49.1568 16.605 48.8834 16.5577C48.6089 16.5104 48.2239 16.4871 47.7273 16.4871H45.3506V14.6374H47.7273C48.4124 14.6374 48.9005 14.5519 49.1916 14.3805C49.4826 14.2091 49.6284 13.9995 49.6284 13.7512C49.6284 13.4346 49.3778 13.2011 48.8766 13.0513C48.376 12.901 47.7609 12.8218 47.0336 12.8133C46.2026 12.8133 45.4964 12.901 44.9138 13.0764C44.3311 13.2518 44.0401 13.524 44.0401 13.8919H41.0341C41.0341 12.6589 41.6571 11.8218 42.9033 11.381C44.1489 10.9396 45.526 10.7192 47.033 10.7192C47.9494 10.7192 48.8037 10.7773 49.5959 10.8929C50.3882 11.0085 51.0836 11.2762 51.6833 11.6959C52.2824 12.1156 52.5826 12.7364 52.5826 13.5587C52.5826 14.3811 52.0689 14.9716 51.0408 15.2797C52.1543 15.6135 52.7534 16.2991 52.8394 17.3351V17.3607C52.8309 18.5509 52.291 19.4205 51.2208 19.9684" fill="#293133"/>
<path d="M66.116 16.6634H66.0852C64.7497 16.6634 63.778 16.8206 63.1715 17.1338C62.5643 17.4476 62.2505 18.1105 62.23 19.1219V24.7371C62.1697 26.842 61.7089 28.3688 60.8495 29.3198C59.9889 30.2709 58.9928 30.8427 57.8594 31.0346C56.726 31.2265 55.178 31.3228 53.2159 31.3228L53.2461 27.3471C54.1568 27.3471 54.875 27.2862 55.4013 27.1649C55.9275 27.043 56.3427 26.7805 56.6457 26.3756C56.9487 25.9712 57.1008 25.3539 57.1008 24.5241V18.9693C57.1811 17.4322 57.799 16.3189 58.9523 15.6309C57.799 14.9435 57.1816 13.8404 57.1008 12.3227V6.76844C57.1008 5.93926 56.9487 5.3168 56.6457 4.90164C56.3421 4.48762 55.927 4.21881 55.4013 4.09751C54.875 3.97621 54.1568 3.91527 53.2461 3.91527L53.2159 0C55.178 0 56.726 0.0911201 57.8594 0.273358C58.9928 0.455596 59.9889 1.02224 60.8495 1.97273C61.7095 2.92378 62.1702 4.44149 62.23 6.52527V12.1097C62.23 12.8381 62.3821 13.3843 62.6851 13.7487C62.9892 14.1126 63.4033 14.3513 63.9295 14.4617C64.4552 14.5734 65.174 14.6286 66.0847 14.6286H66.1154V16.6623L66.116 16.6634Z" fill="#293133"/>
</svg>

<svg width="67" height="32" fill="none" xmlns="http://www.w3.org/2000/svg"><path d="M30.1 22.9v-1.1l-8.6 8.6.4.7L30 23Zm-.6-1.1h-1.2L25 25.2l-1 2.2 5.6-5.6Zm-6.6 5.5-2 2 .4.7 2-2-.4-.7Zm-3.2 2.5v-1.1l-2.6 2.6h1.1l1.5-1.5Zm0 .6-.9.9h1v-.9Zm11.5-7.9v1l1.8-1.7h-1.1l-.7.7Zm4.1 2.2h-1v-.1l-3.1 3.1V29l4.1-4.2ZM31.2 26v1l3.2-3.2v-1l-3.2 3Zm0-.7 3.2-3.1v-.4h-.8l-2.4 2.4v1.1Zm3.2 2.7-3.2 3.3h1l2.2-2.1v-1.1ZM19 21.8h-1.2l-1.3 1.3v1l2.4-2.3ZM30.1 27 27 30.2v1.1l3.1-3.1V27Zm-13.6-4.6.7-.6h-.7v.6Zm14.7-.6Zm14.5 5.4-3.1 3.2v.9h.2l3-3v-1ZM25.5 24l2.2-2.2h-1.1l-1 2.2Zm-4 .5-.4-.8-4.6 4.6v1.1l5-5Zm-1.2-2.4-.1-.3h-.6l-3 3V26l3.7-3.8Zm-.6 5.9v-1l.4.7 2-2-.4-.8-5.2 5.2v1.1l3.2-3.2Zm1.3-4.7-.5-.7-4 4v1l4.4-4.3Zm-.3 5.5 2-2-.4-.7-2 2 .4.7Zm5.5-.2L27 27v.8l3.1-3.1v-1.2l-7.8 7.8h1.2l2.7-2.7ZM42 26.9l-.4-.7-2.4 2.3c0 .2-.2.4-.3.5l-.3.1-2.2 2.2h1.1l4.4-4.4Zm-4.3-.1h.7l1.8-1.7-.9-.3-2 2h.4ZM36 29.2h-1l-2.1 2.1H34l2-2Zm6.1-.7v-1.1l-4 3.9c.5 0 1 0 1.3-.2l2.7-2.6Zm3.6 2.2-.5.6h.5v-.6Zm-4.1-.9.3-.4-1.4 1.4 1.1-1Zm4.1.3V29l-2.3 2.3h1.2l1.1-1.2Zm-3.1-7.4 1-.9h-1v1Zm3.1 2.8-3.1 3.1v1.2l3.1-3.2v-1.1Zm-7.9 3.7h-1.1l-2 2.1h1l2.1-2Zm-3.4-2.4h.6l2-2h-1l-4.8 4.7v1.1l3.2-3.2v-.6Zm6.2-1.5L39 27.1l.2.1.2.6 2-2-.7-.5Zm-10.5 5.3-.7.7h.7v-.7Zm-4.5-.8L24 31.3h.8l.7-1.5Zm4.5-4.5L27 28.5v1l3.1-3v-1.2Zm0 4.7v-1.2l-2.5 2.5h1.1l1.4-1.4Zm15.6-5.2v-1l-3.1 3V28l3.1-3.2Zm-3.1-1.4v1l2.7-2.6h-1.1l-1.6 1.6Zm0 1.7v1.1l3.1-3.1V22l-3.1 3Zm-5.9 1.7 2-2h-1l-2 2h1ZM24.5 0h3.6l-3.7 4.8L28 9.5h-3.6l-2.3-2.9-2.4 3h-3.5L20 4.7 16.3 0h3.5l2.4 3 2.3-3Zm17 9.5h-3.2l-1-1.6H32l-.9 1.6H28L33.1 0h3.2l5.2 9.5ZM34.7 3l-1.5 2.9h3L34.7 3ZM9.5 26.4c.3.4.7.6 1.2.8l2.2.1v4c-2 0-3.5 0-4.6-.3a5.1 5.1 0 0 1-3-1.7c-.9-1-1.4-2.5-1.4-4.6v-5.6c0-1-.3-1.7-1-2-.6-.3-1.5-.4-2.9-.4v-2l2.2-.2c.5-.1 1-.4 1.2-.8.3-.3.5-.9.5-1.6V6.5c0-2 .5-3.6 1.4-4.5a5 5 0 0 1 3-1.7c1-.2 2.6-.3 4.6-.3v4l-2.2.1a2 2 0 0 0-1.2.8A3 3 0 0 0 9 6.8v5.5c0 1.5-.7 2.6-1.8 3.3 1.1.7 1.7 1.8 1.8 3.4v5.5c0 .9.2 1.5.5 1.9m16.4-15c.6.3 1 .6 1.4 1.1.3.5.5 1 .5 1.7a3 3 0 0 1-1 2.4c-.8.6-1.7.8-3 .8h-4v3.1h-3.2V11h7.2a4 4 0 0 1 2 .4Zm-1.7 3.8c.2 0 .4-.2.5-.3.2-.1.3-.4.3-.7a1 1 0 0 0-.3-.7 1 1 0 0 0-.5-.2 7 7 0 0 0-1-.1h-.4a100.6 100.6 0 0 0-3 0v2h4.4m7.6-4.2v5.9L37 11h3.2v9.5H37v-5.9l-5.2 6h-3.2V11h3.2Zm19.4 9c-1 .5-2.4.8-4.2.8-2 0-3.4-.3-4.4-1-1-.7-1.6-1.7-1.6-3h3c0 .7.3 1.1 1 1.4.5.3 1.2.5 2 .5s1.4-.1 1.9-.3c.5-.2.8-.6.8-1 0-.3 0-.5-.2-.6l-.6-.2-1.2-.1h-2.3v-1.9h2.3a3 3 0 0 0 1.5-.2c.3-.2.4-.4.4-.6 0-.4-.2-.6-.7-.7a7.4 7.4 0 0 0-4 0c-.6.2-.9.4-.9.8h-3c0-1.2.7-2 1.9-2.5s2.6-.7 4.1-.7c1 0 1.8 0 2.6.2a4 4 0 0 1 2 .8c.7.4 1 1 1 1.9 0 .8-.5 1.4-1.6 1.7 1.2.3 1.8 1 1.8 2 0 1.3-.5 2.1-1.6 2.7m14.9-3.3c-1.4 0-2.3.1-3 .4-.5.3-.8 1-.9 2v5.6c0 2.1-.5 3.7-1.4 4.6-.8 1-1.8 1.5-3 1.7-1 .2-2.6.3-4.6.3v-4l2.2-.1a2 2 0 0 0 1.2-.8c.3-.4.5-1 .5-1.9V19c0-1.6.7-2.7 1.9-3.4-1.2-.7-1.8-1.8-1.9-3.3V6.8a3 3 0 0 0-.5-1.9 2 2 0 0 0-1.2-.8 10 10 0 0 0-2.2-.2V0c2 0 3.5 0 4.7.3a5 5 0 0 1 3 1.7c.8 1 1.3 2.4 1.3 4.5v5.6c0 .7.2 1.3.5 1.6.3.4.7.7 1.2.8l2.2.1v2Z" fill="#293133"/></svg>
